X: 27607
T: Monymusk
R: reel
M: 4/4
K: Amajor
af|e>c c2 e<c d>f|ec cA G>A Bc|e>c c2 e<c d>e|f<d B>d cAA2|
e>c c2 e<c d>f|ec cA G>A Bc|e>c c2 e<c de|f<d B>d cAA2||
ae ce (3fgae2|ae ce dB B2|ae ce (3fga ec|defg a2 a2|
ae ce (3fgae2|ae ce dB B2|(3age ae (3fga ec|d>e fg a2||

